X: 313
T: Coloured Aristocracy
B: begged borrowed and stolen
B: canberra pickers and fiddlers
B: tunes
M:4/4
L:1/4
Q: 1/4=100
K:G
V:1 
"G"GG/2A/2 G/2E/2D/2E/2|G3A|"Em"BB/2c/2 B/2A/2G|"Em"E4|"C"ee/2f/2 ge|\
"G"dd/2e/2 dB| [1"A7"AB c^c|"D7"dD EF:|
 [2"D7"B/2A/2B/2d/2 -d/2B/2A|"G"Gd ef|:"G"gg/2a/2 g/2e/2d|"Em"e3d|\
"C"e3/2f/2 ed|
"G"B4|"C"ee/2f/2 ge|"G"dd/2e/2 dB| [1"A7"AB c^c|"D7"dd ef:|[2"D7"B/2A/2B/2d/2 -d/2B/2A|"G"G4||
% abcbook-tune_id 63da59342632fece87ae93fd
% abcbook-tune_composer_id 
% abcbook-link-0 https://www.youtube.com/watch?v=T5FiOU56wXw
% abcbook-boost 0
% abcbook-difficulty 0
% abcbook-tags canberra pickers and fiddlers,old time tunes,© free
% abcbook-tablature 
% abcbook-transpose 
% abcbook-tuning GDAD
% abcbook-lastupdated 1705409635531
% abcbook-src-url https://tunebook.net/scrape/tunes.abc
% abcbook-soundfonts 
% abcbook-repeats 1
% Nottingham Music Database
%%gchordfont "itim-music,Itim" 20

